media/img/products/vpn/resource-center/resource_center_split_1.svg

<svg width="391" height="335" fill="none" xmlns="http://www.w3.org/2000/svg"><g clip-path="url(#a)"><path fill-rule="evenodd" clip-rule="evenodd" d="m0 335.946.007-277.24C.007 26.285 22.619 0 50.513 0h289.44c27.893 0 50.506 26.285 50.506 58.706l-.006 277.24" fill="#F0F0F4"/><path d="M234.156 25.902h-77.634a3.972 3.972 0 0 0-3.971 3.973v.688a3.972 3.972 0 0 0 3.971 3.973h77.634a3.972 3.972 0 0 0 3.969-3.973v-.688a3.972 3.972 0 0 0-3.969-3.973Z" fill="#D1D1D7" fill-opacity=".6"/><path fill-rule="evenodd" clip-rule="evenodd" d="M361.68 57.561c2.364 0 4.281 2.556 4.281 5.71l-.496 277.265H27.016l.498-277.264c0-3.154 1.916-5.71 4.281-5.71H361.68Z" fill="#fff"/><path fill-rule="evenodd" clip-rule="evenodd" d="M361.682 57.561c2.364 0 4.282 2.338 4.282 5.222v15.491H27.515V62.783c0-2.884 1.917-5.222 4.282-5.222h329.885Z" fill="#D1D1D7"/><g filter="url(#b)"><path d="M323.141 96.311H67.063c-5.524 0-10.003 4.479-10.003 10.003v241.045c0 5.525 4.479 10.004 10.003 10.004h256.078c5.525 0 10.003-4.479 10.003-10.004V106.314c0-5.524-4.478-10.003-10.003-10.003Z" fill="#321C64"/><path d="M323.142 96.311H67.063c-5.524 0-10.003 4.479-10.003 10.003v241.045c0 5.525 4.479 10.004 10.003 10.004h256.079c5.524 0 10.002-4.479 10.002-10.004V106.314c0-5.524-4.478-10.003-10.002-10.003Z" stroke="#E7E7E7" stroke-width="1.867"/></g><path d="M223.291 156.234c0-7.275-5.897-13.173-13.171-13.173-7.274 0-13.171 5.898-13.171 13.173v.014c0 7.275 5.897 13.172 13.171 13.172 7.274 0 13.171-5.897 13.171-13.172v-.014Z" fill="#3FE1B0"/><path fill-rule="evenodd" clip-rule="evenodd" d="M193.243 159.988h-8.798c2.073-6.879 5.833-11.574 10.037-11.574.074 0 .146.002.219.005a17.38 17.38 0 0 1 6.615-7.067c-2.225-.5-4.516-.76-6.834-.763a31.269 31.269 0 0 0-17.378 5.275 31.291 31.291 0 0 0-11.522 14.048 31.32 31.32 0 0 0 6.781 34.111 31.26 31.26 0 0 0 34.089 6.785 31.274 31.274 0 0 0 14.039-11.528 31.31 31.31 0 0 0 5.272-17.389 31.351 31.351 0 0 0-.762-6.84 17.374 17.374 0 0 1-7.06 6.62 23.344 23.344 0 0 1-1.307 7.88h-7.121a48.31 48.31 0 0 0 .582-6.014 17.275 17.275 0 0 1-3.899-.449 43.41 43.41 0 0 1-.664 6.463h-22.1a43.385 43.385 0 0 1 0-15.322h11.355a17.172 17.172 0 0 1-1.544-4.241Zm-8.798 23.804c2.073 6.879 5.833 11.574 10.037 11.574 4.204 0 7.966-4.695 10.041-11.574h-20.078Zm-12.113-19.563a23.375 23.375 0 0 0-1.311 7.662 23.372 23.372 0 0 0 1.311 7.66h7.12a48.373 48.373 0 0 1 0-15.322h-7.12Zm8.03-4.241a30.179 30.179 0 0 1 4.11-9.296 23.573 23.573 0 0 0-10.177 9.296h6.067Zm0 23.804h-6.067a23.582 23.582 0 0 0 10.177 9.297 30.174 30.174 0 0 1-4.11-9.297Zm24.147 9.288a23.58 23.58 0 0 0 10.173-9.288h-6.069a30.145 30.145 0 0 1-4.104 9.288Z" fill="url(#c)"/><path fill-rule="evenodd" clip-rule="evenodd" d="m210.12 162.024-.091-.01a5.139 5.139 0 0 1-3.303-1.999 7.635 7.635 0 0 1-1.482-4.354c-.062-.692-.062-2.208-.062-3.053a1.519 1.519 0 0 1 1.256-1.5l3.682-.633 3.681.633c.729.126 1.261.76 1.259 1.5 0 .843 0 2.361-.066 3.053a7.62 7.62 0 0 1-1.482 4.354 5.14 5.14 0 0 1-3.302 1.999l-.09.01Zm-3.292-9.313c0 .509-.006.959-.011 1.347-.007.631-.014 1.095.011 1.371a6.246 6.246 0 0 0 1.224 3.61 3.483 3.483 0 0 0 2.068 1.322 3.471 3.471 0 0 0 2.068-1.322 6.234 6.234 0 0 0 1.226-3.61c.025-.276.018-.74.011-1.371-.005-.388-.011-.838-.011-1.347l-3.294-.564-3.292.564Zm1.234 1.042 2.058-.353v5.684h-.006a2.195 2.195 0 0 1-1.07-.776 4.747 4.747 0 0 1-.93-2.907c-.027-.284-.044-.872-.052-1.648Z" fill="#fff"/><path opacity=".6" d="M215.16 253.84h-41.357c-6.532 0-11.827 5.295-11.827 11.827s5.295 11.828 11.827 11.828h41.357c6.532 0 11.827-5.296 11.827-11.828 0-6.532-5.295-11.827-11.827-11.827Z" fill="#3FE1B0"/><g filter="url(#d)"><path fill-rule="evenodd" clip-rule="evenodd" d="M209.256 283.409c9.792 0 17.731-7.943 17.731-17.741 0-9.799-7.939-17.742-17.731-17.742-9.792 0-17.731 7.943-17.731 17.742 0 9.798 7.939 17.741 17.731 17.741Z" fill="#54FFBD"/><path d="M234.505 256.546c0 9.625-7.799 17.428-17.418 17.428-9.62 0-17.418-7.803-17.418-17.428 0-9.627 7.798-17.43 17.418-17.43 9.619 0 17.418 7.803 17.418 17.43Z" stroke="url(#e)" stroke-width=".934"/><path d="M234.505 256.546c0 9.625-7.799 17.428-17.418 17.428-9.62 0-17.418-7.803-17.418-17.428 0-9.627 7.798-17.43 17.418-17.43 9.619 0 17.418 7.803 17.418 17.43Z" stroke="url(#f)" stroke-width=".934"/></g><path d="m168.83 217.51-4.291 9.756-4.309-9.756h-1.403l5.001 11.34h1.403l5.001-11.34h-1.402Zm3.233 11.34h1.286v-4.078h3.319c2.343 0 4.174-1.502 4.174-3.631 0-2.129-1.831-3.631-4.174-3.631h-4.605v11.34Zm1.286-5.299v-4.82h3.087c1.848 0 3.104.892 3.104 2.41 0 1.519-1.256 2.41-3.104 2.41h-3.087Zm9.583 5.299h1.288v-9.227l7.03 9.227h1.288v-11.34h-1.288v9.227l-7.03-9.227h-1.288v11.34Zm17.802-10.086a.825.825 0 0 0 .809-.825.822.822 0 0 0-.809-.809.825.825 0 0 0-.826.809c0 .446.363.825.826.825Zm-.628 10.086h1.238v-8.534h-1.238v8.534Zm6.744.197c1.767 0 3.12-1.006 3.12-2.574 0-1.618-1.42-2.08-2.79-2.51-1.584-.511-2.212-.743-2.212-1.485 0-.826.793-1.254 1.751-1.254.759 0 1.6.263 2.459.809l.594-.958c-.908-.594-1.998-.957-3.053-.957-1.701 0-2.988.957-2.988 2.508 0 1.222.792 1.832 2.855 2.428 1.156.33 2.146.626 2.146 1.551 0 .808-.759 1.337-1.882 1.337-.94 0-1.914-.364-2.888-1.073l-.644.908c1.024.825 2.344 1.27 3.532 1.27Zm13.916 0c2.393 0 4.407-2.047 4.407-4.472 0-2.427-2.014-4.457-4.407-4.457-2.393 0-4.424 2.03-4.424 4.457 0 2.425 2.031 4.472 4.424 4.472Zm0-1.105c-1.7 0-3.12-1.536-3.12-3.367 0-1.816 1.42-3.351 3.12-3.351 1.684 0 3.103 1.535 3.103 3.351 0 1.831-1.419 3.367-3.103 3.367Zm10.511-7.824c-1.205 0-2.31.66-2.805 1.568v-1.37h-1.238v8.534h1.238v-5.431c0-1.189 1.205-2.195 2.64-2.195 1.254 0 2.129.974 2.129 2.36v5.266h1.238v-5.431c0-1.932-1.32-3.301-3.202-3.301Z" fill="#fff"/></g><defs><linearGradient id="e" x1="199.53" y1="238.803" x2="199.53" y2="273.939" gradientUnits="userSpaceOnUse"><stop stop-opacity="0"/><stop offset=".8" stop-opacity=".02"/><stop offset="1" stop-opacity=".04"/></linearGradient><linearGradient id="f" x1="199.356" y1="238.803" x2="199.356" y2="274.287" gradientUnits="userSpaceOnUse"><stop stop-color="#fff" stop-opacity=".12"/><stop offset=".2" stop-color="#fff" stop-opacity=".06"/><stop offset="1" stop-color="#fff" stop-opacity="0"/></linearGradient><filter id="b" x="48.658" y="89.776" width="292.888" height="277.856" filterUnits="userSpaceOnUse" color-interpolation-filters="sRGB"><feFlood flood-opacity="0" result="BackgroundImageFix"/><feColorMatrix in="SourceAlpha" values="0 0 0 0 0 0 0 0 0 0 0 0 0 0 0 0 0 0 127 0" result="hardAlpha"/><feOffset dy="1.867"/><feGaussianBlur stdDeviation="3.734"/><feColorMatrix values="0 0 0 0 0.0470588 0 0 0 0 0.0470588 0 0 0 0 0.0509804 0 0 0 0.1 0"/><feBlend in2="BackgroundImageFix" result="effect1_dropShadow"/><feBlend in="SourceGraphic" in2="effect1_dropShadow" result="shape"/></filter><filter id="d" x="187.791" y="234.915" width="50.915" height="55.963" filterUnits="userSpaceOnUse" color-interpolation-filters="sRGB"><feFlood flood-opacity="0" result="BackgroundImageFix"/><feColorMatrix in="SourceAlpha" values="0 0 0 0 0 0 0 0 0 0 0 0 0 0 0 0 0 0 127 0" result="hardAlpha"/><feOffset dy="3.734"/><feGaussianBlur stdDeviation="1.867"/><feColorMatrix values="0 0 0 0 0 0 0 0 0 0 0 0 0 0 0 0 0 0 0.24 0"/><feBlend in2="BackgroundImageFix" result="effect1_dropShadow"/><feColorMatrix in="SourceAlpha" values="0 0 0 0 0 0 0 0 0 0 0 0 0 0 0 0 0 0 127 0" result="hardAlpha"/><feOffset/><feGaussianBlur stdDeviation="1.867"/><feColorMatrix values="0 0 0 0 0 0 0 0 0 0 0 0 0 0 0 0 0 0 0.12 0"/><feBlend in2="effect1_dropShadow" result="effect2_dropShadow"/><feBlend in="SourceGraphic" in2="effect2_dropShadow" result="shape"/></filter><radialGradient id="c" cx="0" cy="0" r="1" gradientUnits="userSpaceOnUse" gradientTransform="rotate(-45.019 282.512 -202.103) scale(88.5041)"><stop stop-color="#B833E1"/><stop offset=".371" stop-color="#9059FF"/><stop offset=".614" stop-color="#5B6DF8"/><stop offset="1" stop-color="#0090ED"/></radialGradient><clipPath id="a"><path fill="#fff" d="M0 0h390.46v335H0z"/></clipPath></defs></svg>

<svg width="391" height="335" viewBox="0 0 391 335" fill="none" xmlns="http://www.w3.org/2000/svg">
<g clip-path="url(#clip0)">
<path fill-rule="evenodd" clip-rule="evenodd" d="M0 335.946L0.00651913 58.7061C0.00651913 26.2848 22.6189 0 50.5128 0H339.953C367.846 0 390.459 26.2848 390.459 58.7061L390.453 335.946" fill="#F0F0F4"/>
<path d="M234.156 25.9025H156.522C154.329 25.9025 152.551 27.6812 152.551 29.8753V30.5634C152.551 32.7575 154.329 34.5362 156.522 34.5362H234.156C236.347 34.5362 238.125 32.7575 238.125 30.5634V29.8753C238.125 27.6812 236.347 25.9025 234.156 25.9025Z" fill="#D1D1D7" fill-opacity="0.6"/>
<path fill-rule="evenodd" clip-rule="evenodd" d="M361.68 57.5613C364.044 57.5613 365.961 60.1175 365.961 63.2719L365.465 340.536H27.0161L27.5135 63.2719C27.5135 60.1175 29.4304 57.5613 31.7951 57.5613H361.68Z" fill="white"/>
<path fill-rule="evenodd" clip-rule="evenodd" d="M361.682 57.5613C364.046 57.5613 365.964 59.8986 365.964 62.7828V78.2743H27.5151V62.7828C27.5151 59.8986 29.4322 57.5613 31.7969 57.5613H361.682Z" fill="#D1D1D7"/>
<g filter="url(#filter0_d)">
<path d="M323.141 96.311H67.063C61.5388 96.311 57.0605 100.79 57.0605 106.314V347.359C57.0605 352.884 61.5388 357.363 67.063 357.363H323.141C328.666 357.363 333.144 352.884 333.144 347.359V106.314C333.144 100.79 328.666 96.311 323.141 96.311Z" fill="#321C64"/>
<path d="M323.142 96.311H67.063C61.5388 96.311 57.0605 100.79 57.0605 106.314V347.359C57.0605 352.884 61.5388 357.363 67.063 357.363H323.142C328.666 357.363 333.144 352.884 333.144 347.359V106.314C333.144 100.79 328.666 96.311 323.142 96.311Z" stroke="#E7E7E7" stroke-width="1.86719"/>
</g>
<path d="M223.291 156.234C223.291 148.959 217.394 143.061 210.12 143.061C202.846 143.061 196.949 148.959 196.949 156.234V156.248C196.949 163.523 202.846 169.42 210.12 169.42C217.394 169.42 223.291 163.523 223.291 156.248V156.234Z" fill="#3FE1B0"/>
<path fill-rule="evenodd" clip-rule="evenodd" d="M193.243 159.988H184.445C186.518 153.109 190.278 148.414 194.482 148.414C194.556 148.414 194.628 148.416 194.701 148.419C196.191 145.482 198.496 143.027 201.316 141.352C199.091 140.852 196.8 140.592 194.482 140.589C188.296 140.589 182.248 142.425 177.104 145.864C171.959 149.304 167.949 154.192 165.582 159.912C163.214 165.631 162.596 171.924 163.802 177.996C165.01 184.068 167.988 189.645 172.363 194.023C176.738 198.401 182.312 201.382 188.379 202.59C194.447 203.798 200.737 203.177 206.452 200.808C212.169 198.44 217.054 194.427 220.491 189.28C223.929 184.132 225.763 178.081 225.763 171.891C225.761 169.571 225.501 167.279 225.001 165.051C223.328 167.873 220.876 170.179 217.941 171.671C217.943 171.743 217.943 171.817 217.943 171.891C217.938 174.499 217.495 177.089 216.634 179.551H209.513C209.832 177.56 210.027 175.552 210.095 173.537C208.754 173.535 207.449 173.38 206.196 173.088C206.136 175.255 205.915 177.416 205.532 179.551H183.432C182.523 174.484 182.523 169.296 183.432 164.229H194.787C194.097 162.906 193.573 161.483 193.243 159.988V159.988ZM184.445 183.792C186.518 190.671 190.278 195.366 194.482 195.366C198.686 195.366 202.448 190.671 204.523 183.792H184.445ZM172.332 164.229C171.47 166.691 171.028 169.281 171.021 171.891C171.028 174.499 171.47 177.089 172.332 179.551H179.452C178.638 174.476 178.638 169.303 179.452 164.229H172.332ZM180.362 159.988C181.196 156.679 182.587 153.536 184.472 150.692C180.23 152.707 176.686 155.944 174.295 159.988H180.362ZM180.362 183.792H174.295C176.686 187.836 180.23 191.073 184.472 193.089C182.587 190.245 181.196 187.102 180.362 183.792V183.792ZM204.509 193.08C208.748 191.067 212.29 187.832 214.682 183.792H208.613C207.78 187.098 206.392 190.239 204.509 193.08V193.08Z" fill="url(#paint0_radial)"/>
<path fill-rule="evenodd" clip-rule="evenodd" d="M210.12 162.024L210.029 162.014C208.71 161.803 207.526 161.085 206.726 160.015C205.796 158.751 205.279 157.23 205.244 155.661C205.182 154.969 205.182 153.453 205.182 152.608C205.18 151.868 205.711 151.236 206.438 151.108L210.12 150.475L213.801 151.108C214.53 151.234 215.062 151.868 215.06 152.608C215.06 153.451 215.06 154.969 214.994 155.661C214.96 157.23 214.443 158.751 213.512 160.015C212.712 161.085 211.528 161.803 210.21 162.014L210.12 162.024V162.024ZM206.828 152.711C206.828 153.22 206.822 153.67 206.817 154.058C206.81 154.689 206.803 155.153 206.828 155.429C206.85 156.731 207.278 157.993 208.052 159.039C208.559 159.717 209.294 160.186 210.12 160.361C210.948 160.186 211.683 159.717 212.188 159.039C212.964 157.993 213.392 156.731 213.414 155.429C213.439 155.153 213.432 154.689 213.425 154.058C213.42 153.67 213.414 153.22 213.414 152.711L210.12 152.147L206.828 152.711ZM208.062 153.753L210.12 153.4V159.084H210.114C209.686 158.942 209.314 158.671 209.044 158.308C208.422 157.468 208.096 156.446 208.114 155.401C208.087 155.117 208.07 154.529 208.062 153.753V153.753Z" fill="white"/>
<path opacity="0.6" d="M215.16 253.84H173.803C167.271 253.84 161.976 259.135 161.976 265.667V265.667C161.976 272.199 167.271 277.495 173.803 277.495H215.16C221.692 277.495 226.987 272.199 226.987 265.667C226.987 259.135 221.692 253.84 215.16 253.84Z" fill="#3FE1B0"/>
<g filter="url(#filter1_dd)">
<path fill-rule="evenodd" clip-rule="evenodd" d="M209.256 283.409C219.048 283.409 226.987 275.466 226.987 265.668C226.987 255.869 219.048 247.926 209.256 247.926C199.464 247.926 191.525 255.869 191.525 265.668C191.525 275.466 199.464 283.409 209.256 283.409Z" fill="#54FFBD"/>
<path d="M234.505 256.546C234.505 266.171 226.706 273.974 217.087 273.974C207.467 273.974 199.669 266.171 199.669 256.546C199.669 246.919 207.467 239.116 217.087 239.116C226.706 239.116 234.505 246.919 234.505 256.546Z" stroke="url(#paint1_linear)" stroke-width="0.933593"/>
<path d="M234.505 256.546C234.505 266.171 226.706 273.974 217.087 273.974C207.467 273.974 199.669 266.171 199.669 256.546C199.669 246.919 207.467 239.116 217.087 239.116C226.706 239.116 234.505 246.919 234.505 256.546Z" stroke="url(#paint2_linear)" stroke-width="0.933593"/>
</g>
<path d="M168.83 217.51L164.539 227.266L160.23 217.51H158.827L163.828 228.85H165.231L170.232 217.51H168.83ZM172.063 228.85H173.349V224.772H176.668C179.011 224.772 180.842 223.27 180.842 221.141C180.842 219.012 179.011 217.51 176.668 217.51H172.063V228.85ZM173.349 223.551V218.731H176.436C178.284 218.731 179.54 219.623 179.54 221.141C179.54 222.66 178.284 223.551 176.436 223.551H173.349V223.551ZM182.932 228.85H184.22V219.623L191.25 228.85H192.538V217.51H191.25V226.737L184.22 217.51H182.932V228.85ZM200.734 218.764C201.179 218.764 201.543 218.385 201.543 217.939C201.543 217.51 201.179 217.13 200.734 217.13C200.271 217.13 199.908 217.51 199.908 217.939C199.908 218.385 200.271 218.764 200.734 218.764ZM200.106 228.85H201.344V220.316H200.106V228.85ZM206.85 229.047C208.617 229.047 209.97 228.041 209.97 226.473C209.97 224.855 208.55 224.393 207.18 223.963C205.596 223.452 204.968 223.22 204.968 222.478C204.968 221.652 205.761 221.224 206.719 221.224C207.478 221.224 208.319 221.487 209.178 222.033L209.772 221.075C208.864 220.481 207.774 220.118 206.719 220.118C205.018 220.118 203.731 221.075 203.731 222.626C203.731 223.848 204.523 224.458 206.586 225.054C207.742 225.384 208.732 225.68 208.732 226.605C208.732 227.413 207.973 227.942 206.85 227.942C205.91 227.942 204.936 227.578 203.962 226.869L203.318 227.777C204.342 228.602 205.662 229.047 206.85 229.047V229.047ZM220.766 229.047C223.159 229.047 225.173 227 225.173 224.575C225.173 222.148 223.159 220.118 220.766 220.118C218.373 220.118 216.342 222.148 216.342 224.575C216.342 227 218.373 229.047 220.766 229.047ZM220.766 227.942C219.066 227.942 217.646 226.406 217.646 224.575C217.646 222.759 219.066 221.224 220.766 221.224C222.45 221.224 223.869 222.759 223.869 224.575C223.869 226.406 222.45 227.942 220.766 227.942ZM231.277 220.118C230.072 220.118 228.967 220.778 228.472 221.686V220.316H227.234V228.85H228.472V223.419C228.472 222.23 229.677 221.224 231.112 221.224C232.366 221.224 233.241 222.198 233.241 223.584V228.85H234.479V223.419C234.479 221.487 233.159 220.118 231.277 220.118V220.118Z" fill="white"/>
</g>
<defs>
<filter id="filter0_d" x="48.6582" y="89.7758" width="292.888" height="277.856" filterUnits="userSpaceOnUse" color-interpolation-filters="sRGB">
<feFlood flood-opacity="0" result="BackgroundImageFix"/>
<feColorMatrix in="SourceAlpha" type="matrix" values="0 0 0 0 0 0 0 0 0 0 0 0 0 0 0 0 0 0 127 0" result="hardAlpha"/>
<feOffset dy="1.86719"/>
<feGaussianBlur stdDeviation="3.73437"/>
<feColorMatrix type="matrix" values="0 0 0 0 0.0470588 0 0 0 0 0.0470588 0 0 0 0 0.0509804 0 0 0 0.1 0"/>
<feBlend mode="normal" in2="BackgroundImageFix" result="effect1_dropShadow"/>
<feBlend mode="normal" in="SourceGraphic" in2="effect1_dropShadow" result="shape"/>
</filter>
<filter id="filter1_dd" x="187.791" y="234.915" width="50.915" height="55.9626" filterUnits="userSpaceOnUse" color-interpolation-filters="sRGB">
<feFlood flood-opacity="0" result="BackgroundImageFix"/>
<feColorMatrix in="SourceAlpha" type="matrix" values="0 0 0 0 0 0 0 0 0 0 0 0 0 0 0 0 0 0 127 0" result="hardAlpha"/>
<feOffset dy="3.73437"/>
<feGaussianBlur stdDeviation="1.86719"/>
<feColorMatrix type="matrix" values="0 0 0 0 0 0 0 0 0 0 0 0 0 0 0 0 0 0 0.24 0"/>
<feBlend mode="normal" in2="BackgroundImageFix" result="effect1_dropShadow"/>
<feColorMatrix in="SourceAlpha" type="matrix" values="0 0 0 0 0 0 0 0 0 0 0 0 0 0 0 0 0 0 127 0" result="hardAlpha"/>
<feOffset/>
<feGaussianBlur stdDeviation="1.86719"/>
<feColorMatrix type="matrix" values="0 0 0 0 0 0 0 0 0 0 0 0 0 0 0 0 0 0 0.12 0"/>
<feBlend mode="normal" in2="effect1_dropShadow" result="effect2_dropShadow"/>
<feBlend mode="normal" in="SourceGraphic" in2="effect2_dropShadow" result="shape"/>
</filter>
<radialGradient id="paint0_radial" cx="0" cy="0" r="1" gradientUnits="userSpaceOnUse" gradientTransform="translate(225.766 140.59) rotate(-45.0187) scale(88.5041)">
<stop stop-color="#B833E1"/>
<stop offset="0.371" stop-color="#9059FF"/>
<stop offset="0.614" stop-color="#5B6DF8"/>
<stop offset="1" stop-color="#0090ED"/>
</radialGradient>
<linearGradient id="paint1_linear" x1="199.53" y1="238.803" x2="199.53" y2="273.939" gradientUnits="userSpaceOnUse">
<stop stop-opacity="0"/>
<stop offset="0.8" stop-opacity="0.02"/>
<stop offset="1" stop-opacity="0.04"/>
</linearGradient>
<linearGradient id="paint2_linear" x1="199.356" y1="238.803" x2="199.356" y2="274.287" gradientUnits="userSpaceOnUse">
<stop stop-color="white" stop-opacity="0.12"/>
<stop offset="0.2" stop-color="white" stop-opacity="0.06"/>
<stop offset="1" stop-color="white" stop-opacity="0"/>
</linearGradient>
<clipPath id="clip0">
<rect width="390.46" height="335" fill="white"/>
</clipPath>
</defs>
</svg>
